icons/pinecone-dark.svg

<svg width="256" height="256" viewBox="0 0 256 256" fill="none" xmlns="http://www.w3.org/2000/svg">
<path d="M196 0H60C26.8629 0 0 26.8629 0 60V196C0 229.137 26.8629 256 60 256H196C229.137 256 256 229.137 256 196V60C256 26.8629 229.137 0 196 0Z" fill="#282828"/>
<path fill-rule="evenodd" clip-rule="evenodd" d="M153.023 25.3877C150.923 22.8877 147.423 22.2877 144.623 23.8877L142.023 25.2877L113.723 41.3877L120.323 52.9877L138.723 42.4877L134.223 67.0877L147.323 69.4877L151.923 44.7877L165.523 60.9877L175.723 52.3877L155.123 27.7877H155.023L153.023 25.3877ZM113.323 232.888C120.123 232.888 125.623 227.488 125.623 220.888C125.623 214.288 120.123 208.888 113.323 208.888C106.523 208.888 101.023 214.288 101.023 220.888C100.923 227.488 106.523 232.888 113.323 232.888ZM129.823 166.988L125.423 191.688L112.223 189.288L116.623 164.688L98.2228 175.288L91.5228 163.688L119.623 147.588L122.223 146.088C125.023 144.488 128.523 145.088 130.623 147.588L132.623 149.988L153.523 174.488L143.323 183.188L129.823 166.988ZM140.523 107.988L136.123 132.688L122.923 130.288L127.323 105.788L109.023 116.288L102.423 104.688L130.423 88.6877V88.4877H130.623L133.223 86.9877C136.023 85.3877 139.523 85.9877 141.623 88.4877L143.623 90.7877L164.423 115.388L154.223 124.088L140.523 107.988ZM54.2228 205.588H54.1228L51.4228 204.788C48.5228 203.988 46.6228 201.188 46.8228 198.188L49.2228 164.788L61.9228 165.688L60.4228 185.988L80.1228 172.588L87.2228 183.088L67.9228 196.188L87.6228 201.888L84.1228 214.088L54.2228 205.588ZM184.923 219.388L184.023 222.288C183.123 225.088 180.523 226.988 177.523 226.788L174.723 226.588L174.523 226.688L174.423 226.588L143.423 224.488L144.223 211.788L164.823 213.188L151.323 194.288L161.623 186.888L175.423 206.288L181.423 186.688L193.523 190.388L184.923 219.388ZM221.323 150.588L222.823 153.288C224.323 155.988 223.723 159.388 221.323 161.388L219.123 163.288V163.388H219.023L194.923 183.788L186.523 173.888L202.323 160.488L178.623 156.288L180.923 143.488L204.823 147.688L194.823 129.688L206.123 123.388L221.323 150.588ZM196.823 94.7877L175.423 106.288L169.223 94.8877L190.323 83.5877L171.023 75.6877L175.923 63.6877L205.323 75.5877L205.423 75.4877L205.523 75.6877L208.223 76.7877C211.123 77.9877 212.723 80.9877 212.223 83.9877L211.723 86.9877L206.223 117.488L193.423 115.188L196.823 94.7877ZM53.2228 121.588L77.0228 125.588L74.8228 138.388L50.8228 134.288L61.0228 152.288L49.7228 158.688L34.3228 131.588L32.8228 128.988C31.3228 126.288 31.9228 122.888 34.2228 120.888L36.4228 118.988V118.888H36.5228L60.3228 98.3877L68.8228 108.288L53.2228 121.588ZM89.1228 66.1877L104.923 83.7877L95.2228 92.4877L79.0228 74.4877L75.3228 94.9877L62.5228 92.6877L68.1228 62.2877L68.7228 59.1877C69.2228 56.1877 71.8228 53.9877 74.8228 53.8877L77.6228 53.7877L77.7228 53.6877L77.8228 53.7877L109.623 52.4877L110.123 65.4877L89.1228 66.1877Z" fill="#FCFCFC"/>
</svg>

<svg xmlns="http://www.w3.org/2000/svg" width="256" height="256" fill="none"><path fill="#282828" d="M196 0H60C26.863 0 0 26.863 0 60v136c0 33.137 26.863 60 60 60h136c33.137 0 60-26.863 60-60V60c0-33.137-26.863-60-60-60"/><path fill="#FCFCFC" fill-rule="evenodd" d="M153.023 25.388c-2.1-2.5-5.6-3.1-8.4-1.5l-2.6 1.4-28.3 16.1 6.6 11.6 18.4-10.5-4.5 24.6 13.1 2.4 4.6-24.7 13.6 16.2 10.2-8.6-20.6-24.6h-.1zm-39.7 207.5c6.8 0 12.3-5.4 12.3-12s-5.5-12-12.3-12-12.3 5.4-12.3 12c-.1 6.6 5.5 12 12.3 12m16.5-65.9-4.4 24.7-13.2-2.4 4.4-24.6-18.4 10.6-6.7-11.6 28.1-16.1 2.6-1.5c2.8-1.6 6.3-1 8.4 1.5l2 2.4 20.9 24.5-10.2 8.7zm10.7-59-4.4 24.7-13.2-2.4 4.4-24.5-18.3 10.5-6.6-11.6 28-16v-.2h.2l2.6-1.5c2.8-1.6 6.3-1 8.4 1.5l2 2.3 20.8 24.6-10.2 8.7zm-86.3 97.6h-.1l-2.7-.8c-2.9-.8-4.8-3.6-4.6-6.6l2.4-33.4 12.7.9-1.5 20.3 19.7-13.4 7.1 10.5-19.3 13.1 19.7 5.7-3.5 12.2zm130.7 13.8-.9 2.9c-.9 2.8-3.5 4.7-6.5 4.5l-2.8-.2-.2.1-.1-.1-31-2.1.8-12.7 20.6 1.4-13.5-18.9 10.3-7.4 13.8 19.4 6-19.6 12.1 3.7zm36.4-68.8 1.5 2.7c1.5 2.7.9 6.1-1.5 8.1l-2.2 1.9v.1h-.1l-24.1 20.4-8.4-9.9 15.8-13.4-23.7-4.2 2.3-12.8 23.9 4.2-10-18 11.3-6.3zm-24.5-55.8-21.4 11.5-6.2-11.4 21.1-11.3-19.3-7.9 4.9-12 29.4 11.9.1-.1.1.2 2.7 1.1a6.6 6.6 0 0 1 4 7.2l-.5 3-5.5 30.5-12.8-2.3zm-143.6 26.8 23.8 4-2.2 12.8-24-4.1 10.2 18-11.3 6.4-15.4-27.1-1.5-2.6c-1.5-2.7-.9-6.1 1.4-8.1l2.2-1.9v-.1h.1l23.8-20.5 8.5 9.9zm35.9-55.4 15.8 17.6-9.7 8.7-16.2-18-3.7 20.5-12.8-2.3 5.6-30.4.6-3.1c.5-3 3.1-5.2 6.1-5.3l2.8-.1.1-.1.1.1 31.8-1.3.5 13z" clip-rule="evenodd"/></svg>
